X: 1
T: Vangpreisen
O: Gudbrandsdal
R: mazurka
Z: 2001 John Chambers <jc@trillian.mit.edu>
S: handwritten MS of unknown origin
M: 3/4
L: 1/8
K: D
|: "A7"A>c e<c "G"d>B | G>B "D"B<A A>F \
|1,3 "A7"A>G E<C C>E | E>G "D"F<D D2 \
:|2,4 "A7"A>G E<C (3E/G/F/ | "D"D2 D4 :|
|: "D"f>e d2 A2 | f>e "(G)"d<c "G"B2 \
|1,3 "A7"e>d c<B A>E | (3A/B/c/ "D"d2 A2 \
:|2,4 "A7"e>d c<B A>^G | (3A/B/c/ "D"d4 :|
